src/assets/icon/shiba_inu.svg

<svg width="24" height="24" viewBox="0 0 24 24" fill="none" xmlns="http://www.w3.org/2000/svg">
<g clip-path="url(#clip0_453_12509)">
<path d="M17.5726 2.11144C16.948 2.729 16.3758 3.39834 15.8672 4.11205L15.7063 4.06028C14.7788 3.76074 13.8176 3.57584 12.8489 3.51298C12.5572 3.49079 11.4688 3.49079 11.1135 3.51298C10.0401 3.58324 9.21733 3.74225 8.28231 4.06398C8.24491 4.07877 8.21125 4.08986 8.17759 4.10096C7.65024 3.39094 7.06305 2.7253 6.41602 2.11513C9.52027 0.543486 13.1519 0.354888 16.402 1.59372C16.7498 1.72315 17.0902 1.87476 17.423 2.03748L17.5726 2.11144Z" fill="#F00500"/>
<path d="M23.3617 16.1378C22.8905 17.4654 22.1836 18.6969 21.2673 19.7693C20.7699 20.3462 20.2201 20.875 19.6292 21.3557C18.2453 22.4577 16.6296 23.2454 14.9055 23.6596C12.998 24.1144 11.0083 24.1144 9.10087 23.6596C7.37296 23.2454 5.761 22.4577 4.37717 21.3557C3.78624 20.875 3.23645 20.3462 2.73902 19.7693C0.102278 16.6888 -0.698097 12.4583 0.644587 8.6457C0.898911 7.93939 1.21682 7.25895 1.5983 6.61181C1.77409 6.31597 1.99101 5.98315 2.09573 5.84632C2.45478 7.37359 2.89611 8.71597 3.06067 9.2004C3.04945 9.22629 3.03449 9.25587 3.01953 9.28176C2.14809 11.0272 1.67685 12.7098 1.56464 14.4996C1.56464 14.5218 1.5609 14.5477 1.5609 14.5699C1.53098 15.1061 1.54594 15.3613 1.6357 15.6978C1.91621 16.7517 2.78017 17.9129 4.13407 19.0519C6.35193 20.9157 9.35894 22.2617 11.6366 22.417C14.0116 22.5761 17.516 21.2041 19.8498 19.1998C20.2163 18.8781 20.5604 18.5378 20.8821 18.1754C21.114 17.9092 21.4581 17.4506 21.4319 17.4506C21.4244 17.4506 21.4319 17.4432 21.4468 17.4358C21.4581 17.4284 21.4693 17.4174 21.4618 17.41C21.458 17.4063 21.4655 17.3952 21.4768 17.3915C21.488 17.3878 21.4955 17.3804 21.4917 17.373C21.488 17.3656 21.4917 17.3582 21.5067 17.3545C21.5179 17.3508 21.5216 17.3397 21.5179 17.3323C21.5142 17.3249 21.5179 17.3175 21.5254 17.3175C21.5329 17.3175 21.5403 17.3064 21.5403 17.299C21.5403 17.2916 21.5478 17.2805 21.5553 17.2805C21.5628 17.2805 21.5703 17.2731 21.5703 17.2657C21.5815 17.2362 21.6002 17.2066 21.6189 17.1807C21.675 17.0956 21.8994 16.6999 21.9293 16.6334C22.1425 16.1563 22.2771 15.7311 22.3407 15.3058C22.3706 15.1024 22.3893 14.7289 22.3744 14.6402C22.3706 14.6254 22.3706 14.5995 22.3669 14.5588C22.3594 14.4848 22.3557 14.3739 22.3482 14.263C22.3407 14.0966 22.3257 13.8636 22.3145 13.7489C22.1537 12.07 21.7199 10.6981 20.897 9.24478C20.8634 9.18931 20.8335 9.13384 20.8148 9.08946C20.8073 9.07837 20.8035 9.06728 20.7998 9.05988C20.9157 8.71597 21.3907 7.27744 21.7685 5.63184L21.776 5.63923L21.8321 5.71319C21.9293 5.84262 22.1874 6.22721 22.3033 6.41211C22.8307 7.26265 23.2421 8.17606 23.5338 9.13014C24.2107 11.4266 24.1546 13.8747 23.3617 16.1378Z" fill="#F00500"/>
<path d="M18.5064 11.7186C18.4952 11.7778 18.3194 11.9553 18.1436 12.0847C17.6275 12.4582 16.7037 12.8058 15.765 12.9723C15.2301 13.0684 14.6953 13.0832 14.5345 13.0055C14.4297 12.9538 14.4148 12.9131 14.4522 12.78C14.5307 12.5026 14.7851 12.1994 15.1815 11.9146C15.3835 11.7704 16.2025 11.2786 16.584 11.0715C17.2124 10.7313 17.721 10.5279 18.0651 10.4798C18.1736 10.465 18.3045 10.4613 18.3456 10.4798C18.4129 10.5057 18.4877 10.7017 18.5176 10.9384C18.5326 11.0641 18.5251 11.6188 18.5064 11.7186Z" fill="black"/>
<path d="M9.69482 12.9428C9.67238 12.9872 9.56017 13.0353 9.43301 13.0538C9.30585 13.0723 8.91688 13.0612 8.69622 13.0353C7.90333 12.9317 7.06181 12.6914 6.44844 12.3955C6.10436 12.2291 5.85751 12.0627 5.67425 11.8815L5.56953 11.7743L5.55831 11.6337C5.5396 11.3897 5.54335 11.0051 5.57327 10.8683C5.59197 10.7536 5.63311 10.6427 5.68921 10.5428C5.71913 10.5059 5.71913 10.5059 5.85377 10.5059C6.01833 10.5059 6.15672 10.5317 6.38112 10.602C6.84115 10.7425 7.52558 11.0827 8.35961 11.5783C9.04779 11.9851 9.30585 12.1848 9.50407 12.4584C9.63872 12.6285 9.72848 12.8689 9.69482 12.9428Z" fill="black"/>
<path d="M14.9917 18.0906C14.9917 18.1017 14.9469 18.2792 14.8908 18.49C14.8347 18.7008 14.7898 18.8709 14.7898 18.8783C14.7486 18.882 14.7112 18.8857 14.6701 18.882H14.5504L14.3859 19.2665C14.2961 19.4773 14.2138 19.6733 14.2026 19.7029L14.1802 19.7547L14.1016 19.629L14.0231 19.5032V18.4789L13.9932 18.4863C13.9296 18.5011 13.477 18.5602 13.2788 18.5787C12.4597 18.6601 11.6369 18.6416 10.8216 18.5269C10.6907 18.5085 10.5785 18.4937 10.5747 18.4974C10.571 18.5011 10.5747 18.7377 10.5822 19.0299L10.5934 19.555L10.5299 19.6511C10.4962 19.7029 10.4625 19.7473 10.4625 19.751C10.4513 19.7621 10.4139 19.7029 10.3279 19.5328C10.2344 19.3553 10.1671 19.1667 10.1184 18.9707L10.0923 18.8635L9.97632 18.8709L9.86038 18.882L9.83046 18.7451C9.81549 18.6712 9.7968 18.5565 9.78932 18.4937L9.7781 18.3753L9.68085 18.2903C9.62475 18.2422 9.56865 18.1941 9.55743 18.1867C9.53873 18.1719 9.53125 18.1461 9.53125 18.1239V18.0795L9.99876 18.0832L10.4663 18.0869L10.4812 18.135L10.4962 18.183L10.657 18.1904C10.7468 18.1941 11.031 18.2015 11.2853 18.2089L11.7528 18.22L11.8725 18.0351L11.996 17.8502H12.153L12.1493 17.4656L12.1456 17.081L11.9399 16.9923C11.2779 16.7038 10.8889 16.3747 10.743 15.9753C10.7131 15.894 10.7131 15.8644 10.7056 15.4946C10.7019 15.1285 10.7019 15.0952 10.7281 15.0139C10.7804 14.829 10.9263 14.6847 11.1133 14.6367C11.1769 14.6182 11.3452 14.6182 12.2278 14.6182L13.2676 14.6219L13.3835 14.6773C13.5219 14.7439 13.5855 14.792 13.664 14.8955C13.7538 15.0138 13.78 15.1063 13.78 15.3319C13.78 15.6536 13.7575 15.931 13.7239 16.0419C13.6752 16.1935 13.6004 16.3377 13.5069 16.4672C13.3199 16.7038 12.9796 16.9405 12.6692 17.0477L12.5794 17.081L12.5831 17.4693L12.5869 17.8576L12.6692 17.865L12.7515 17.8724L12.8637 18.0388L12.9721 18.2052H13.4733C13.75 18.2052 13.9931 18.2089 14.0156 18.2126C14.053 18.22 14.0605 18.2163 14.0979 18.1535L14.1428 18.0869H14.5729C14.8945 18.0721 14.9917 18.0795 14.9917 18.0906Z" fill="black"/>
<path d="M13.0161 19.1517C12.945 19.1924 12.8964 19.2109 12.8852 19.2035C12.8739 19.1998 12.8216 19.1554 12.7655 19.1148L12.6645 19.0334L12.5598 19.1443C12.3316 19.3884 12.3241 19.3995 12.2568 19.4032C12.1521 19.4143 12.1297 19.3958 12.0025 19.2072C11.9352 19.1111 11.8828 19.0297 11.8828 19.0297C11.8828 19.0297 11.8342 19.0223 11.7781 19.0186L11.6734 19.0075L11.6248 19.1074L11.5761 19.2072L11.4901 19.1813C11.4228 19.1591 11.3555 19.1332 11.2919 19.1037L11.1797 19.0482V18.8374L12.1745 18.8411L13.1694 18.8448L13.1731 18.9446C13.1769 19.063 13.1806 19.0593 13.0161 19.1517Z" fill="black"/>
<path d="M22.3669 14.6405C22.3631 14.6257 22.3631 14.5998 22.3594 14.5591C21.4618 14.463 18.8998 14.4038 16.5211 16.3453C16.5211 16.3453 15.7544 12.8691 12.164 12.8691C8.5735 12.8691 7.24204 16.3453 7.24204 16.3453C5.22988 14.2041 2.53704 14.3594 1.56462 14.5C1.56462 14.5221 1.56088 14.548 1.56088 14.5702C1.53096 15.1064 1.54592 15.3616 1.63568 15.6981C1.91619 16.752 2.78014 17.9132 4.13405 19.0522C6.3519 20.916 9.35892 22.2621 11.6366 22.4174C14.0116 22.5764 17.516 21.2044 19.8498 19.2001C20.2163 18.8784 20.5604 18.5382 20.8821 18.1758C21.1139 17.9095 21.458 17.451 21.4318 17.451C21.4244 17.451 21.4318 17.4436 21.4468 17.4362C21.458 17.4288 21.4692 17.4177 21.4618 17.4103C21.458 17.4066 21.4655 17.3955 21.4767 17.3918C21.4879 17.3881 21.4954 17.3807 21.4917 17.3733C21.4879 17.3659 21.4917 17.3585 21.5066 17.3548C21.5179 17.3511 21.5216 17.34 21.5179 17.3326C21.5141 17.3252 21.5179 17.3178 21.5253 17.3178C21.5328 17.3178 21.5403 17.3067 21.5403 17.2993C21.5403 17.2919 21.5478 17.2809 21.5553 17.2809C21.5627 17.2809 21.5702 17.2735 21.5702 17.2661C21.5814 17.2365 21.6002 17.2069 21.6189 17.181C21.675 17.096 21.8994 16.7003 21.9293 16.6337C22.1425 16.1567 22.2771 15.7314 22.3407 15.3061C22.3631 15.1027 22.3818 14.7292 22.3669 14.6405ZM13.0167 19.152C12.9456 19.1927 12.897 19.2112 12.8858 19.2038C12.8746 19.2001 12.8222 19.1557 12.7661 19.1151L12.6651 19.0337L12.5604 19.1446C12.3323 19.3887 12.3248 19.3998 12.2575 19.4035C12.1527 19.4146 12.1303 19.3961 12.0031 19.2075C11.9358 19.1114 11.8835 19.03 11.8835 19.03C11.8835 19.03 11.8348 19.0226 11.7787 19.0189L11.674 19.0078L11.6254 19.1077L11.5768 19.2075L11.4908 19.1816C11.4234 19.1594 11.3561 19.1335 11.2925 19.104L11.1803 19.0485V18.8377L12.1752 18.8414L13.17 18.8451L13.1738 18.9449C13.1775 19.0633 13.1813 19.0596 13.0167 19.152ZM14.8867 18.4864C14.8306 18.6972 14.7857 18.8673 14.7857 18.8747C14.7446 18.8784 14.7072 18.8821 14.6661 18.8784H14.5464L14.3856 19.2667C14.2958 19.4775 14.2135 19.6735 14.2023 19.703L14.1799 19.7548L14.1013 19.6291L14.0228 19.5033V18.479L13.9929 18.4864C13.9293 18.5012 13.4767 18.5604 13.2785 18.5788C12.4594 18.6602 11.6366 18.6417 10.8213 18.5271C10.6904 18.5086 10.5782 18.4938 10.5744 18.4975C10.5707 18.5012 10.5744 18.7379 10.5819 19.03L10.5931 19.5551L10.5296 19.6513C10.4959 19.703 10.4622 19.7474 10.4622 19.7511C10.451 19.7622 10.4136 19.703 10.3276 19.5329C10.2341 19.3554 10.1668 19.1668 10.1181 18.9708L10.092 18.8636L9.97603 18.871L9.86008 18.8821L9.83016 18.7453C9.8152 18.6713 9.7965 18.5567 9.78902 18.4938L9.77781 18.3755L9.68056 18.2904C9.62446 18.2423 9.56836 18.1943 9.55714 18.1869C9.53844 18.1721 9.53096 18.1462 9.53096 18.124V18.0796L9.99847 18.0833L10.466 18.087L10.4809 18.1351L10.4959 18.1832L10.6567 18.1906C10.7465 18.1943 11.0307 18.2017 11.285 18.209L11.7526 18.2201L11.8722 18.0352L11.9957 17.8503H12.1527L12.149 17.4658L12.1453 17.0812L11.9396 16.9924C11.2776 16.704 10.8886 16.3748 10.7427 15.9755C10.7128 15.8941 10.7128 15.8645 10.7053 15.4947C10.7016 15.1286 10.7016 15.0953 10.7278 15.014C10.7801 14.8291 10.926 14.6849 11.113 14.6368C11.1766 14.6183 11.3449 14.6183 12.2275 14.6183L13.2673 14.622L13.3832 14.6775C13.5216 14.744 13.5852 14.7921 13.6637 14.8956C13.7535 15.014 13.7797 15.1064 13.7797 15.332C13.7797 15.6537 13.7572 15.9311 13.7236 16.042C13.675 16.1936 13.6001 16.3379 13.5066 16.4673C13.3196 16.704 12.9793 16.9406 12.6689 17.0479L12.5791 17.0812L12.5829 17.4694L12.5866 17.8577L12.6689 17.8651L12.7512 17.8725L12.8634 18.0389L12.9718 18.2053H13.473C13.7498 18.2053 13.9929 18.209 14.0153 18.2127C14.0527 18.2201 14.0602 18.2164 14.0976 18.1536L14.1425 18.087H14.5726C14.9054 18.087 15.0027 18.0907 15.0027 18.1018C14.9915 18.0981 14.9428 18.2793 14.8867 18.4864Z" fill="white"/>
<path d="M22.3364 14.2631C22.329 14.0967 22.314 13.8637 22.3028 13.7491C22.142 12.0702 21.7081 10.6982 20.8853 9.24491C20.8516 9.18944 20.8217 9.13397 20.803 9.08959C20.7955 9.0785 20.7918 9.06741 20.7881 9.06001C20.904 8.7161 21.379 7.27758 21.7567 5.63197C22.2691 3.39838 22.5945 0.787592 21.5997 0.0036171C21.5997 0.0036171 19.8792 -0.122115 17.5753 2.11148C16.9508 2.72904 16.3785 3.39838 15.8699 4.11209L15.709 4.06032C14.7815 3.76078 13.8203 3.57588 12.8516 3.51302C12.5599 3.49083 11.4716 3.49083 11.1162 3.51302C10.0428 3.58328 9.22004 3.74229 8.28502 4.06402C8.24762 4.07881 8.21396 4.0899 8.18029 4.101C7.65295 3.39098 7.06576 2.72534 6.41873 2.11517C4.02134 -0.129511 2.23733 -8.11201e-05 2.23733 -8.11201e-05C1.18263 0.80978 1.54168 3.5389 2.08773 5.84645C2.44678 7.37372 2.8881 8.7161 3.05267 9.20053C3.04145 9.22642 3.02649 9.25601 3.01153 9.28189C2.14009 11.0273 1.66884 12.7099 1.55664 14.4998C2.5328 14.3592 5.22191 14.2002 7.2378 16.3451C7.2378 16.3451 8.56926 12.8689 12.1597 12.8689C15.7502 12.8689 16.5169 16.3451 16.5169 16.3451C18.8956 14.4036 21.4575 14.4665 22.3551 14.5589C22.3514 14.485 22.3439 14.374 22.3364 14.2631ZM3.75954 7.80639C3.75954 7.80639 2.36075 4.34876 2.7198 2.37403C2.77964 2.04121 2.89184 1.74907 3.06763 1.52719C3.06763 1.52719 4.65341 1.68251 7.21162 4.49299C7.21162 4.49299 6.72541 4.72596 6.07464 5.22149C6.07464 5.22149 6.0709 5.22519 6.06716 5.22519C5.36029 5.7614 4.45519 6.61194 3.75954 7.80639ZM9.69502 12.9429C9.67258 12.9873 9.56038 13.0354 9.43322 13.0538C9.30605 13.0723 8.91709 13.0612 8.69643 13.0354C7.90353 12.9318 7.06202 12.6914 6.44865 12.3956C6.10456 12.2292 5.85771 12.0628 5.67445 11.8816L5.56973 11.7743L5.55851 11.6338C5.53981 11.3897 5.54355 11.0052 5.57347 10.8683C5.59217 10.7537 5.63331 10.6428 5.68941 10.5429C5.71933 10.5059 5.71933 10.5059 5.85398 10.5059C6.01854 10.5059 6.15692 10.5318 6.38132 10.6021C6.84135 10.7426 7.52579 11.0828 8.35982 11.5783C9.04799 11.9851 9.30606 12.1848 9.50428 12.4585C9.63892 12.6286 9.72868 12.8689 9.69502 12.9429ZM18.5066 11.7189C18.4954 11.778 18.3196 11.9555 18.1438 12.085C17.6277 12.4585 16.7039 12.8061 15.7651 12.9725C15.2303 13.0686 14.6955 13.0834 14.5347 13.0058C14.4299 12.954 14.415 12.9133 14.4524 12.7802C14.5309 12.5028 14.7853 12.1996 15.1817 11.9149C15.3837 11.7706 16.2027 11.2788 16.5842 11.0717C17.2126 10.7315 17.7212 10.5281 18.0653 10.48C18.1738 10.4653 18.3047 10.4616 18.3458 10.48C18.4131 10.5059 18.4879 10.7019 18.5178 10.9386C18.5328 11.0643 18.5253 11.619 18.5066 11.7189ZM17.8858 5.22149L17.8783 5.21779C17.25 4.72226 16.7787 4.48929 16.7787 4.48929C19.2509 1.67881 20.7806 1.52349 20.7806 1.52349C20.9489 1.74907 21.0573 2.03752 21.1172 2.37034C21.465 4.34507 20.1148 7.80639 20.1148 7.80639C19.5501 6.81163 18.7909 5.93151 17.8858 5.22149Z" fill="#FFA409"/>
<path d="M21.1215 2.37028C20.8298 2.3333 19.4497 2.3259 17.8864 5.22143L17.8789 5.21774C17.2505 4.7222 16.7793 4.48923 16.7793 4.48923C19.2515 1.67875 20.7812 1.52344 20.7812 1.52344C20.9532 1.74902 21.0617 2.03746 21.1215 2.37028Z" fill="#FF9300"/>
<path d="M20.1195 7.80619C19.5511 6.80773 18.7956 5.93131 17.8867 5.22129C19.4501 2.32576 20.8264 2.33316 21.1219 2.37014C21.4697 4.34857 20.1195 7.80619 20.1195 7.80619Z" fill="#FF8300"/>
<path d="M21.1772 2.38121C21.1585 2.37751 21.1398 2.37382 21.1211 2.37012L21.1772 2.38121Z" fill="#FF8300"/>
<path d="M7.21235 4.48923C7.21235 4.48923 6.72615 4.7222 6.07538 5.21774C6.07538 5.21774 6.07163 5.22143 6.06789 5.22143C4.44845 2.3222 3.02348 2.3333 2.7168 2.37028C2.77664 2.03746 2.88884 1.74532 3.06462 1.52344C3.06836 1.52344 4.65415 1.67875 7.21235 4.48923Z" fill="#FF9300"/>
<path d="M6.07019 5.22129C5.35958 5.7612 4.45448 6.60804 3.75883 7.80619C3.75883 7.80619 2.36005 4.34857 2.71909 2.37014C3.02204 2.33316 4.45074 2.32576 6.07019 5.22129Z" fill="#FF8300"/>
<path d="M2.72 2.37012C2.7013 2.37382 2.67886 2.37751 2.66016 2.38121L2.72 2.37012Z" fill="#FF8300"/>
<path d="M16.3336 9.7256C16.3336 9.7256 15.1368 9.79956 15.2864 8.87506C15.436 7.95056 16.371 7.83962 16.6328 7.8766C16.8946 7.91358 17.9418 8.28338 17.7548 9.05996C17.5678 9.83654 17.306 9.68862 17.1564 9.7256C17.0068 9.76258 16.3336 9.7256 16.3336 9.7256Z" fill="white"/>
<path d="M7.50743 9.7256C7.50743 9.7256 6.3106 9.79956 6.46021 8.87506C6.60981 7.95056 7.54483 7.83962 7.80663 7.8766C8.06843 7.91358 9.11565 8.28338 8.92865 9.05996C8.74165 9.83654 8.47984 9.68862 8.33024 9.7256C8.18064 9.76258 7.50743 9.7256 7.50743 9.7256Z" fill="white"/>
</g>
<defs>
<clipPath id="clip0_453_12509">
<rect width="24" height="24" fill="white"/>
</clipPath>
</defs>
</svg>

<svg xmlns="http://www.w3.org/2000/svg" width="24" height="24" fill="none" xmlns:v="https://vecta.io/nano"><g clip-path="url(#A)"><g fill="#f00500"><path d="M17.573 2.111a15.32 15.32 0 0 0-1.705 2.001l-.161-.052a11.79 11.79 0 0 0-2.857-.547c-.292-.022-1.38-.022-1.735 0-1.073.07-1.896.229-2.831.551l-.105.037a15.08 15.08 0 0 0-1.762-1.986 12.37 12.37 0 0 1 9.986-.521c.348.129.688.281 1.021.444l.15.074zm5.789 14.027a11.52 11.52 0 0 1-2.094 3.632c-.497.577-1.047 1.106-1.638 1.586-1.384 1.102-3 1.89-4.724 2.304a12.52 12.52 0 0 1-5.805 0c-1.728-.414-3.34-1.202-4.724-2.304-.591-.481-1.141-1.009-1.638-1.586C.102 16.689-.698 12.458.645 8.646a12.02 12.02 0 0 1 .954-2.034 10.07 10.07 0 0 1 .497-.765c.359 1.527.8 2.87.965 3.354a.83.83 0 0 1-.041.081c-.871 1.745-1.343 3.428-1.455 5.218 0 .022-.004.048-.004.07-.03.536-.015.791.075 1.128.281 1.054 1.144 2.215 2.498 3.354 2.218 1.864 5.225 3.21 7.503 3.365 2.375.159 5.879-1.213 8.213-3.217a11.6 11.6 0 0 0 1.032-1.024c.232-.266.576-.725.55-.725-.008 0 0-.007.015-.015s.023-.018.015-.026.004-.015.015-.018.019-.011.015-.018 0-.015.015-.018.015-.015.011-.022c.015-.015.022-.026.022-.033s.008-.018.015-.018.015-.007.015-.015c.011-.029.03-.059.049-.085.056-.085.281-.481.31-.547.213-.477.348-.902.411-1.328.03-.203.049-.577.034-.666-.004-.015-.004-.041-.008-.081-.008-.074-.011-.185-.019-.296a12.44 12.44 0 0 0-.034-.514c-.161-1.679-.595-3.051-1.418-4.504a1.26 1.26 0 0 1-.082-.155c-.008-.011-.011-.022-.015-.03.116-.344.591-1.782.969-3.428l.008.007.056.074a15.24 15.24 0 0 1 .471.699 11.57 11.57 0 0 1 1.23 2.718c.677 2.296.621 4.745-.172 7.008z"/></g><g fill="#000"><path d="M18.506 11.719c-.011.059-.187.237-.363.366-.516.373-1.44.721-2.379.888-.535.096-1.07.111-1.231.033-.105-.052-.12-.092-.082-.226.079-.277.333-.581.729-.865a22.98 22.98 0 0 1 1.402-.843c.628-.34 1.137-.544 1.481-.592a.78.78 0 0 1 .281 0c.067.026.142.222.172.459a5.96 5.96 0 0 1-.011.78zm-8.811 1.224c-.022.044-.135.092-.262.111s-.516.007-.737-.019c-.793-.104-1.634-.344-2.248-.64-.344-.166-.591-.333-.774-.514l-.105-.107-.011-.141c-.019-.244-.015-.629.015-.765.019-.115.06-.226.116-.325.03-.037.03-.037.165-.037.165 0 .303.026.527.096.46.14 1.144.481 1.978.976.688.407.946.606 1.144.88.135.17.224.411.191.484zm5.297 5.148c0 .011-.045.189-.101.399l-.101.388a.69.69 0 0 1-.12.004h-.12l-.165.384-.183.436-.022.052-.079-.126-.079-.126v-1.024l-.03.007c-.064.015-.516.074-.714.092-.819.081-1.642.063-2.457-.052l-.247-.03a11.06 11.06 0 0 0 .008.533l.011.525-.064.096-.067.1c-.011.011-.049-.048-.135-.218-.093-.178-.161-.366-.21-.562l-.026-.107-.116.007-.116.011-.03-.137-.041-.251-.011-.118-.097-.085-.123-.104c-.019-.015-.026-.041-.026-.063v-.044l.468.004.468.004.015.048.015.048.161.007.628.018.468.011.12-.185.123-.185h.157l-.004-.385-.004-.385-.206-.089c-.662-.288-1.051-.618-1.197-1.017-.03-.081-.03-.111-.037-.481s-.004-.399.022-.481a.54.54 0 0 1 .385-.377c.064-.018.232-.018 1.114-.018l1.04.004.116.055a.65.65 0 0 1 .281.218c.09.118.116.211.116.436 0 .322-.022.599-.056.71a1.53 1.53 0 0 1-.217.425c-.187.237-.527.473-.838.581l-.09.033.004.388.004.388.082.007.082.007.112.166.108.166h.501l.542.007c.037.007.045.004.082-.059l.045-.067h.43c.322-.015.419-.007.419.004z"/><path d="M13.016 19.152c-.071.041-.12.059-.131.052s-.064-.048-.12-.089l-.101-.081-.105.111c-.228.244-.236.255-.303.259-.105.011-.127-.007-.254-.196l-.12-.178-.105-.011-.105-.011-.049.1-.049.1-.086-.026c-.067-.022-.135-.048-.198-.078l-.112-.055v-.211l.995.004.995.004.004.1c.004.118.008.115-.157.207z"/></g><path d="M22.367 14.641c-.004-.015-.004-.041-.008-.081a8.02 8.02 0 0 0-5.838 1.786s-.767-3.476-4.357-3.476-4.922 3.476-4.922 3.476C5.23 14.204 2.537 14.359 1.565 14.5c0 .022-.004.048-.004.07-.03.536-.015.791.075 1.128.281 1.054 1.144 2.215 2.498 3.354 2.218 1.864 5.225 3.21 7.503 3.365 2.375.159 5.879-1.213 8.213-3.217.367-.322.711-.662 1.032-1.024.232-.266.576-.725.55-.725-.007 0 0-.007.015-.015s.022-.018.015-.026.004-.015.015-.018.019-.011.015-.018 0-.015.015-.018.015-.015.011-.022c.015-.015.022-.026.022-.033s.008-.018.015-.018.015-.007.015-.015c.011-.03.03-.059.049-.085.056-.085.281-.481.31-.547.213-.477.348-.902.411-1.328.022-.203.041-.577.026-.666zm-9.35 4.512c-.071.041-.12.059-.131.052s-.064-.048-.12-.089l-.101-.081-.105.111c-.228.244-.236.255-.303.259-.105.011-.127-.007-.254-.196l-.12-.177-.105-.011-.105-.011-.049.1-.049.1-.086-.026a1.85 1.85 0 0 1-.198-.078l-.112-.055v-.211l.995.004.995.004.004.1c.004.118.008.115-.157.207zm1.87-.666l-.101.388c-.041.004-.079.007-.12.004h-.12l-.161.388-.183.436-.022.052-.079-.126-.079-.126v-1.024l-.03.007c-.064.015-.516.074-.714.092a10.31 10.31 0 0 1-2.457-.052l-.247-.03a11.06 11.06 0 0 0 .007.533l.011.525-.063.096-.067.1c-.011.011-.049-.048-.135-.218-.094-.178-.161-.366-.21-.562l-.026-.107-.116.007-.116.011-.03-.137-.041-.252-.011-.118-.097-.085-.123-.104c-.019-.015-.026-.041-.026-.063v-.044l.468.004.468.004.015.048.015.048.161.007.628.018.468.011.12-.185.123-.185h.157l-.004-.384-.004-.385-.206-.089c-.662-.288-1.051-.618-1.197-1.017-.03-.081-.03-.111-.037-.481s-.004-.399.023-.481a.54.54 0 0 1 .385-.377c.064-.018.232-.018 1.114-.018l1.04.004.116.056c.138.066.202.115.281.218.09.118.116.211.116.436 0 .322-.023.599-.056.71-.049.152-.123.296-.217.425-.187.237-.527.473-.838.581l-.09.033.004.388.004.388.082.007.082.007.112.166.108.166h.501l.542.007c.037.007.045.004.082-.059l.045-.067h.43l.43.015c-.011-.004-.06.177-.116.385z" fill="#fff"/><path d="M22.336 14.263l-.034-.514a10.76 10.76 0 0 0-1.418-4.504c-.034-.055-.064-.111-.082-.155-.008-.011-.011-.022-.015-.03l.969-3.428c.512-2.234.838-4.844-.157-5.628 0 0-1.72-.126-4.024 2.108-.624.618-1.197 1.287-1.705 2.001l-.161-.052a11.79 11.79 0 0 0-2.857-.547c-.292-.022-1.38-.022-1.735 0-1.073.07-1.896.229-2.831.551l-.105.037c-.527-.71-1.115-1.376-1.762-1.986C4.021-.13 2.237 0 2.237 0c-1.055.81-.696 3.539-.15 5.847l.965 3.354a.83.83 0 0 1-.041.081C2.14 11.027 1.669 12.71 1.557 14.5c.976-.141 3.665-.3 5.681 1.845 0 0 1.331-3.476 4.922-3.476s4.357 3.476 4.357 3.476a8.04 8.04 0 0 1 5.838-1.786l-.019-.296zM3.76 7.806S2.361 4.349 2.72 2.374c.06-.333.172-.625.348-.847 0 0 1.586.155 4.144 2.966 0 0-.486.233-1.137.729A8.9 8.9 0 0 0 3.76 7.806zm5.935 5.137c-.022.044-.135.092-.262.111s-.516.007-.737-.018c-.793-.104-1.634-.344-2.248-.64-.344-.166-.591-.333-.774-.514l-.105-.107-.011-.14c-.019-.244-.015-.629.015-.766a1 1 0 0 1 .116-.325c.03-.037.03-.037.165-.037.165 0 .303.026.527.096.46.14 1.144.481 1.978.976.688.407.946.606 1.144.88.135.17.224.41.191.484zm8.812-1.224c-.011.059-.187.237-.363.366-.516.373-1.44.721-2.379.887-.535.096-1.07.111-1.23.033-.105-.052-.12-.093-.082-.226.079-.277.333-.581.729-.865.202-.144 1.021-.636 1.402-.843.628-.34 1.137-.544 1.481-.592.108-.015.239-.018.281 0 .067.026.142.222.172.459.015.126.008.68-.011.78zm-.621-6.497l-.008-.004c-.628-.496-1.1-.729-1.1-.729 2.472-2.81 4.002-2.966 4.002-2.966.168.226.277.514.337.847.348 1.975-1.002 5.436-1.002 5.436-.565-.995-1.324-1.875-2.229-2.585z" fill="#ffa409"/><path d="M21.122 2.37c-.292-.037-1.672-.044-3.235 2.851l-.007-.004c-.628-.496-1.1-.729-1.1-.729 2.472-2.81 4.002-2.966 4.002-2.966.172.226.281.514.34.847z" fill="#ff9300"/><g fill="#ff8300"><path d="M20.12 7.806a8.8 8.8 0 0 0-2.233-2.585c1.563-2.896 2.94-2.888 3.235-2.851.348 1.978-1.002 5.436-1.002 5.436z"/><path d="M21.177 2.381l-.056-.011.056.011z"/></g><path d="M7.212 4.489s-.486.233-1.137.729C4.448 2.322 3.023 2.333 2.717 2.37c.06-.333.172-.625.348-.847.004 0 1.59.155 4.148 2.966z" fill="#ff9300"/><g fill="#ff8300"><path d="M6.07 5.221c-.711.54-1.616 1.387-2.311 2.585 0 0-1.399-3.458-1.04-5.436.303-.037 1.732-.044 3.351 2.851z"/><path d="M2.72 2.37l-.06.011.06-.011z"/></g><g fill="#fff"><path d="M16.334 9.726s-1.197.074-1.047-.851 1.085-1.035 1.346-.998 1.309.407 1.122 1.183-.449.629-.598.666-.823 0-.823 0zm-8.827 0S6.311 9.8 6.46 8.875s1.085-1.035 1.346-.998 1.309.407 1.122 1.183-.449.629-.598.666-.823 0-.823 0z"/></g></g><defs><clipPath id="A"><path fill="#fff" d="M0 0h24v24H0z"/></clipPath></defs></svg>
